X:294
T:Hughie Johnny Angus of West Mabou
R:Strathspey
C:arr. D. MacIsaac
Z:Chords by Robin Shaylor, August 2005
M:C
L:1/8
K:G
E |:\
"G" D<G B>G "C" c>A "G" B<G | "G" D<G B>d "D7" Tc>A F<A | "G" D<G B>G "C" c>AB>G | "C"  G<g "D" d>c "G" B<G G> E |!
"G" D<G B>G "C" c>A B<G | "G" D<G B>d "D7" Tc>A F<A | "G" D<G B>G "C" c>AB>G | "Am7" G<g Td>c "G" B<G G> f |!
"Em" Tg>ed>e "C" g>ab>a | "G" Tg>ed>B "D7" e<A A>f  | "C" Tg>ed>e "G" g>ab>g    | "Am7" e<a a>b "D7" Ta>g e<a  |!
"Em" Tg>ed>e "C" g>ab>a | "G" Tg>ed>B "Am" e<A A> g | "D7" a>f  "C" g>e  "D" Tf>d f<a | "Am7" Tg>e "D7" d>g "G" B<G G :||
